icons/file-shield.svg

<svg width="24" height="24" viewBox="0 0 24 24" fill="none" xmlns="http://www.w3.org/2000/svg">
<path d="M20 7L16 3H4V21H20V7Z" stroke="white" stroke-width="2" stroke-linecap="round" stroke-linejoin="round"/>
<path d="M15.5 7.75H8.5V12.75C8.5 13.4903 8.9022 14.1366 9.5 14.4824L12 16.25L14.5 14.4824C15.0978 14.1366 15.5 13.4903 15.5 12.75V7.75Z" stroke="white" stroke-width="2" stroke-linecap="round" stroke-linejoin="round"/>
</svg>

<svg
  width="24"
  height="24"
  viewBox="0 0 24 24"
  xmlns="http://www.w3.org/2000/svg"
  fill="none"
  stroke="currentColor"
  stroke-width="2"
  stroke-linecap="round"
  stroke-linejoin="round"
>
  <path d="M20 7l-4-4H4v18h16V7z" />
  <path d="M15.5 7.75h-7v5a2 2 0 0 0 1 1.732L12 16.25l2.5-1.768a2 2 0 0 0 1-1.732v-5z" />
</svg>
